!!!COM: Schiørring, Niels
!!!CDT: 1743-1798
!!!OPR@@DA: Choral-Bog
!!!ONM: 69
!!!OTL@@DA: Mit Haab og Trøſt og ald Tilliid
**kern	**fb	**kern	**kern	**kern	**kern	**kern	**kern	**kern
*part6	*part6	*part6	*part5	*part5	*part4	*part3	*part2	*part1
*staff8	*	*staff7	*staff6	*staff5	*staff4	*staff3	*staff2	*staff1
*clefF4	*	*clefC1	*clefF4	*clefC1	*clefF4	*clefC4	*clefC3	*clefC1
*k[]	*	*k[]	*k[]	*k[]	*k[]	*k[]	*k[]	*k[]
*M3/2	*	*M3/2	*M3/2	*M3/2	*M3/2	*M3/2	*M3/2	*M3/2
*	*	*	*^	*^	*	*	*	*
2D	.	2d	2F	2D	2d	2A	2D	2F	2A	2d
=1	=1	=1	=1	=1	=1	=1	=1	=1	=1	=1
2F	6	1d	2F	2F	1d	2A	(2F	(2F	(2A	1d
2E	7	.	2G	2E	.	2G	2E)	2G)	2G)	.
2D	.	2d	2F	2D	2d	2A	2D	2F	2A	2d
=2	=2	=2	=2	=2	=2	=2	=2	=2	=2	=2
1C	6	1a	1E	1C	1a	2A	1C	1E	(2A	1a
.	.	.	.	.	.	2e	.	.	2e)	.
2BB	6	2dd	2G#X	2BB	2dd	2d	2BB	2G#X	2d	2dd
=3	=3	=3	=3	=3	=3	=3	=3	=3	=3	=3
2AA	.	1cc	1A	2AA	1cc	1e	2AA	1A	1e	1cc
*	*	*	*	*	*	*	*^	*	*	*
2E	6 4	.	.	1E	.	.	[2E	2E	.	.	.
2EE	5 #	2b	2G#X	.	2b	2e	2E]	2EE	2G#X	2d	2b
*	*	*	*	*	*	*	*v	*v	*	*	*
=4	=4	=4	=4	=4	=4	=4	=4	=4	=4	=4
*	*	*	*	*	*	*^	*	*	*	*
1AA	.	1a	1A	1AA	1a	1e	1c\	1AA	1A	1c	1a
*	*	*	*	*	*	*v	*v	*	*	*	*
2G	4	2a	2ryy@	2Gni	2c#X	2e	2G	2c#X	2e	2a
=5	=5	=5	=5	=5	=5	=5	=5	=5	=5	=5
1F	6	1dd	1.ryy	1F	1d	1a	1F	1d	1a	1dd
2E	6 4	2cc	.	2E	2e	[2a	2E	2e	[2a	2cc
=6	=6	=6	=6	=6	=6	=6	=6	=6	=6	=6
2D#X	6 5	1b	1.ryy	2D#X	2f#X	2a]	(2D#X	(2f#X	(2a]	1b
2Dn	4	.	.	2Dn	2e	2g#X	2Dn)	2e)	2g#X)	.
4C	6	2a	.	4C	2e	2a	(4C	2e	2a	2a
4D	.	.	.	4D	.	.	4D)	.	.	.
=7	=7	=7	=7	=7	=7	=7	=7	=7	=7	=7
1E	#	1.g#X	1.B	1.E	1.g#X	1.e	[1E	1.B	1.e	1.g#X
*	*	*	*	*	*	*	*^	*	*	*
2EE	.	.	.	.	.	.	2E]	2EE	.	.	.
=	=	=	=	=	=	=	=	=	=	=	=
*	*	*	*	*	*	*^	*	*	*	*	*
1AA	.	1a	1A	1AA	1a	1e	1c\	1AA	1r	1c	1e	1a
=8:|!	=8:|!	=8:|!	=8:|!	=8:|!	=8:|!	=8:|!	=8:|!	=8:|!	=8:|!	=8:|!	=8:|!	=8:|!
2D	.	2a	2A	2D	2a	2f	2r	2D	2r	2d	2f	2a
=9	=9	=9	=9	=9	=9	=9	=9	=9	=9	=9	=9	=9
1C#X	6	1a	1A	1C#X	1a	1e	1.r	1C#X	1.r	1A	1e	1a
2D	.	2f	2A	2D	2f	2d	.	2D	.	2A	2d	2f
=10	=10	=10	=10	=10	=10	=10	=10	=10	=10	=10	=10	=10
1AA	#	1e	1A	1AA	1e	1c#X	1.r	1A	1AA	1A	1c#X	1e
2BB-X	.	2d	2F	2BB-X	2d	2d	.	2B-X	2BB-X	2F	2d	2d
=11	=11	=11	=11	=11	=11	=11	=11	=11	=11	=11	=11	=11
1AA	6	1f	1F	1AA	1f	1cni	1.r	1A	1AA	1A	1cni	1f
2GG	6 -	2g	2E	2GG	2g	2B-X	.	2G	2GG	2B-X	2e	2g
=12	=12	=12	=12	=12	=12	=12	=12	=12	=12	=12	=12	=12
1FF	.	1a	1F	1FF	1a	1c	1A\	1F	1FF	1c	1f	1a
*	*	*	*	*	*	*v	*v	*	*	*	*	*
2EE	6	2cc	2ryy@	2EE	2e	[2g	2E	2EE	2c	[2g	2cc
=13	=13	=13	=13	=13	=13	=13	=13	=13	=13	=13	=13
1FF	9	1a	1.ryy	1FF	1c	2g]	1F	1FF	1c	(2g]	1a
*	*	*	*	*	*v	*v	*	*	*	*	*
2GG	7	2g	.	2GG	2B	2G	2GG	2B	(4f]	2g
=14	=14	=14	=14	=14	=14	=14	=14	=14	=14	=14
*	*	*	*	*	*^	*	*	*	*	*
2AA	6 5	1f	2ryy@	2AA	2c	2e	(2A	2AA	2c	(2e	1f
2BB	6 5	.	1G	2BB	2ryy@	2d	2B)	2BB	1G	2d)	.
2C	.	2e	.	2C	2e	2c	2c	2C	.	2c	2e
*	*	*	*	*	*	*	*v	*v	*	*	*
=15	=15	=15	=15	=15	=15	=15	=15	=15	=15	=15
2F	6 5	1.d	2A	2F	1.d	1c	(2F	(2A	(1c	1.d
2G	4	.	[2G	2G	.	.	2G	1G)	.	.
2GG	3	.	2G]	2GG	.	2B	2GG)	.	2B)	.
=16	=16	=16	=16	=16	=16	=16	=16	=16	=16	=16
1C	.	1c	1E	1C	1c	1G	1C	1E	1c	1c
2F	.	2a	2c	2F	2a	2f	2F	2F	2c	2a
=17	=17	=17	=17	=17	=17	=17	=17	=17	=17	=17
2B-X	.	1f	2d	2B-X	1f	1f	(2B-X	(2d	(2d	1f
2A	6	.	2c	2A	.	.	2A)	2c)	2f)	.
2G	6 -	2g	2B-	2G	2g	2e	2G	2B-X	2e	2g
=18	=18	=18	=18	=18	=18	=18	=18	=18	=18	=18
*	*	*	*	*	*	*^	*	*	*	*
1F	.	1a	1A	1F	1a	1f	1c\	1F	1c	1f	1a
*	*	*	*	*	*	*v	*v	*	*	*	*
2C#X	6	2a	2A	2C#X	2a	2e	2C#X	2A	2e	2a
=19	=19	=19	=19	=19	=19	=19	=19	=19	=19	=19
2D	.	1f	1A	2D	1f	1d	(2D	1A	1d	1f
2Cni	2	.	.	2Cni	.	.	2Cni)	.	.	.
2BB-X	6	2g	2G	2BB-X	2g	[2d	2BB-X	[2d	2d	2g
=20	=20	=20	=20	=20	=20	=20	=20	=20	=20	=20
1AA	4	1a	1E	1AA	1a	2d]	1AA	(2d]	1e	1a
2A	6	2cc	2cn	2A	2ccni	2f	2A	2c	2f	2cc
=21	=21	=21	=21	=21	=21	=21	=21	=21	=21	=21
2E	6	1cc	1c	2E	1cc	2g	(2E	1c	(2g	1cc
2C	.	.	.	2Cni	.	2e	2C)	.	2e)	.
2F	.	2a	2c	2F	2a	2f	2F	2c	2f	2a
=22	=22	=22	=22	=22	=22	=22	=22	=22	=22	=22
1C#X	5	1g	1A	1C#X	1g	1e	1C#X	1A	1e	1g
2D	.	2f	2A	2D	2f	2d	2D	2A	2d	2f
=23	=23	=23	=23	=23	=23	=23	=23	=23	=23	=23
2GG	6 5 -	1.e	2ryy@	2GG	2B-X	1d	(2GG	(2B-X	(1d	1.e
1AA	4	.	2A	1AA	1ryy@	.	1AA)	2A	.	.
=24	=24	=24	=24	=24	=24	=24	=24	=24	=24	=24
1D	#	1d	1F	1D	1d	1A	1D	1F	1d	1d
*	*	*	*v	*v	*	*	*	*	*	*
*	*	*	*	*v	*v	*	*	*	*
==	==	==	==	==	==	==	==	==
*-	*-	*-	*-	*-	*-	*-	*-	*-
!!!system-decoration: {(s1,s2,s3,s4)}{(s5,s6)}{(s7,s8)}
!!!RDF**kern: i = editorial accidental
!!!AGN: chorale
!!!EED: Derek Remeš
!!!EED2: Victor Phan
!!!END: 2023/11/28
!!!ENC: Wolfgang Drescher
!!!EEV: 2023/11/29
!!!title: @{ONM}. @{OTL}